packages/merlin-www-assets/imports/houseandgarden/icons/card-image-gallery.svg

<svg viewBox="0 0 20 20" xmlns="http://www.w3.org/2000/svg"><path d="m0 0v20h1.29v-18.7h18.71v-1.3z"/><path d="m4.29 20h15.71v-15.7h-15.71zm1.3-14.4h13.09v13.1h-13.09z"/><path d="m15 15h-6.36v1.3h7.66v-7.65h-1.3z"/></svg>

<svg xmlns="http://www.w3.org/2000/svg" viewBox="0 0 20 20"><title>card-image-gallery</title><path d="M0,0V20H1.29V1.3H20V0H0"/><path d="M4.29,20H20V4.3H4.29ZM5.59,5.6H18.68V18.7H5.59Z"/><path d="M15,15H8.64v1.3H16.3V8.65H15V15"/></svg>
